X: 110102
T: FAIRY DANCE
Q: "Reel."
R:  Reel.
%R: reel
B: James Kerr "Merry Melodies" v.1 p.10 s.1 #2
Z: 2017 John Chambers <jc:trillian.mit.edu>
M: C
L: 1/8
K: D
(de) |:\
f2fd f2fd | f2fd (cd)eg |\
f2fa (gf)ed | cABc defg ::\
a2af b2ba | (gf)ge a2ag |\
f2fd (gf)ed |[1 cABc defg :|[2 cABc d2 |]

%%sep 1 1 500
%%sep 1 1 500

